build/img/star-red.svg

<svg width="17" height="16" viewBox="0 0 17 16" fill="none" xmlns="http://www.w3.org/2000/svg">
<path d="M8.36875 0L10.2477 5.87336L16.3279 5.87336L11.4089 9.50329L13.2878 15.3766L8.36875 11.7467L3.44972 15.3766L5.32862 9.50329L0.409596 5.87336L6.48985 5.87336L8.36875 0Z" fill="#D12136"/>
</svg>

<svg width="17" height="16" fill="none" xmlns="http://www.w3.org/2000/svg"><path d="M8.369 0l1.879 5.873h6.08l-4.92 3.63 1.88 5.874-4.92-3.63-4.918 3.63 1.879-5.874-4.92-3.63h6.08L8.37 0z" fill="#D12136"/></svg>
